src/assets/outline/MessageProgramming.svg

<svg width="24" height="24" viewBox="0 0 24 24"  xmlns="http://www.w3.org/2000/svg">
<path d="M12 22.7798C11.31 22.7798 10.66 22.4298 10.2 21.8198L8.70001 19.8198C8.67001 19.7798 8.55 19.7297 8.5 19.7197H8C3.83 19.7197 1.25 18.5897 1.25 12.9697V7.96973C1.25 3.54973 3.58 1.21973 8 1.21973H16C20.42 1.21973 22.75 3.54973 22.75 7.96973V12.9697C22.75 17.3897 20.42 19.7197 16 19.7197H15.5C15.42 19.7197 15.35 19.7598 15.3 19.8198L13.8 21.8198C13.34 22.4298 12.69 22.7798 12 22.7798ZM8 2.71973C4.42 2.71973 2.75 4.38973 2.75 7.96973V12.9697C2.75 17.4897 4.3 18.2197 8 18.2197H8.5C9.01 18.2197 9.58999 18.5097 9.89999 18.9197L11.4 20.9197C11.75 21.3797 12.25 21.3797 12.6 20.9197L14.1 18.9197C14.43 18.4797 14.95 18.2197 15.5 18.2197H16C19.58 18.2197 21.25 16.5497 21.25 12.9697V7.96973C21.25 4.38973 19.58 2.71973 16 2.71973H8Z" />
<path d="M7.99994 13.4497C7.80994 13.4497 7.61994 13.3796 7.46994 13.2296L5.46994 11.2296C5.17994 10.9396 5.17994 10.4596 5.46994 10.1696L7.46994 8.16965C7.75994 7.87965 8.23994 7.87965 8.52994 8.16965C8.81994 8.45965 8.81994 8.93965 8.52994 9.22965L7.05994 10.6997L8.52994 12.1696C8.81994 12.4596 8.81994 12.9396 8.52994 13.2296C8.37994 13.3796 8.18994 13.4497 7.99994 13.4497Z" />
<path d="M15.9999 13.4497C15.8099 13.4497 15.6199 13.3796 15.4699 13.2296C15.1799 12.9396 15.1799 12.4596 15.4699 12.1696L16.9399 10.6997L15.4699 9.22965C15.1799 8.93965 15.1799 8.45965 15.4699 8.16965C15.7599 7.87965 16.2399 7.87965 16.5299 8.16965L18.5299 10.1696C18.8199 10.4596 18.8199 10.9396 18.5299 11.2296L16.5299 13.2296C16.3799 13.3796 16.1899 13.4497 15.9999 13.4497Z" />
<path d="M10.9999 13.7798C10.8999 13.7798 10.7999 13.7597 10.6999 13.7197C10.3199 13.5597 10.1399 13.1197 10.3099 12.7297L12.3099 8.05975C12.4699 7.67975 12.9099 7.49973 13.2999 7.66973C13.6799 7.82973 13.8599 8.26972 13.6899 8.65972L11.6899 13.3298C11.5699 13.6098 11.2899 13.7798 10.9999 13.7798Z" />
</svg>

<?xml version="1.0" encoding="UTF-8"?>
<svg width="24" height="24" viewBox="0 0 24 24" xmlns="http://www.w3.org/2000/svg">
 <path d="m12 22.78c-0.69 0-1.34-0.35-1.8-0.96l-1.5-2c-0.03-0.04-0.15001-0.0901-0.20001-0.1001h-0.5c-4.17 0-6.75-1.13-6.75-6.75v-5c0-4.42 2.33-6.75 6.75-6.75h8c4.42 0 6.75 2.33 6.75 6.75v5c0 4.42-2.33 6.75-6.75 6.75h-0.5c-0.08 0-0.15 0.0401-0.2 0.1001l-1.5 2c-0.46 0.61-1.11 0.96-1.8 0.96zm-4-20.06c-3.58 0-5.25 1.67-5.25 5.25v5c0 4.52 1.55 5.25 5.25 5.25h0.5c0.51 0 1.09 0.29 1.4 0.7l1.5 2c0.35 0.46 0.85 0.46 1.2 0l1.5-2c0.33-0.44 0.85-0.7 1.4-0.7h0.5c3.58 0 5.25-1.67 5.25-5.25v-5c0-3.58-1.67-5.25-5.25-5.25h-8z"/>
 <path d="m7.9999 13.45c-0.19 0-0.38-0.0701-0.53-0.2201l-2-2c-0.29-0.29-0.29-0.77 0-1.06l2-2c0.29-0.29 0.77-0.29 1.06 0s0.29 0.77 0 1.06l-1.47 1.47 1.47 1.4699c0.29 0.29 0.29 0.77 0 1.06-0.15 0.15-0.34 0.2201-0.53 0.2201z"/>
 <path d="m16 13.45c-0.19 0-0.38-0.0701-0.53-0.2201-0.29-0.29-0.29-0.77 0-1.06l1.47-1.4699-1.47-1.47c-0.29-0.29-0.29-0.77 0-1.06s0.77-0.29 1.06 0l2 2c0.29 0.29 0.29 0.77 0 1.06l-2 2c-0.15 0.15-0.34 0.2201-0.53 0.2201z"/>
 <path d="m11 13.78c-0.1 0-0.2-0.0201-0.3-0.0601-0.38-0.16-0.56-0.6-0.39-0.99l2-4.67c0.16-0.38 0.6-0.56002 0.99-0.39002 0.38 0.16 0.56 0.59999 0.39 0.98999l-2 4.6701c-0.12 0.28-0.4 0.45-0.69 0.45z"/>
</svg>
